apps/48/pidgin.svg

<?xml version="1.0" encoding="UTF-8" standalone="no"?>
<!-- Created with Inkscape (http://www.inkscape.org/) -->

<svg
   xmlns:svg="http://www.w3.org/2000/svg"
   xmlns="http://www.w3.org/2000/svg"
   xmlns:xlink="http://www.w3.org/1999/xlink"
   version="1.1"
   width="48"
   height="48"
   id="svg3751">
  <defs
     id="defs3753">
    <radialGradient
       cx="24.016491"
       cy="2.2461414"
       r="21.995602"
       fx="24.016491"
       fy="2.2461414"
       id="radialGradient3703"
       xlink:href="#linearGradient4593"
       gradientUnits="userSpaceOnUse"
       gradientTransform="matrix(-1.4868718e-8,1.4132436,-1.2268499,-1.2907672e-8,26.77217,-29.044021)" />
    <linearGradient
       id="linearGradient4593">
      <stop
         id="stop12409"
         style="stop-color:#ffffff;stop-opacity:0.70200002"
         offset="0" />
      <stop
         id="stop12411"
         style="stop-color:#ffffff;stop-opacity:0"
         offset="1" />
    </linearGradient>
    <radialGradient
       cx="20.248743"
       cy="4.9115634"
       r="23"
       fx="20.248743"
       fy="4.9115634"
       id="radialGradient2852"
       xlink:href="#linearGradient3671"
       gradientUnits="userSpaceOnUse"
       gradientTransform="matrix(0,1.7703635,-1.4881952,0,30.166509,-32.859046)" />
    <linearGradient
       id="linearGradient3671">
      <stop
         id="stop3673"
         style="stop-color:#e384c6;stop-opacity:1"
         offset="0" />
      <stop
         id="stop3675"
         style="stop-color:#c467be;stop-opacity:1"
         offset="0.26238" />
      <stop
         id="stop3677"
         style="stop-color:#93399a;stop-opacity:1"
         offset="0.704952" />
      <stop
         id="stop3679"
         style="stop-color:#48274f;stop-opacity:1"
         offset="1" />
    </linearGradient>
    <linearGradient
       x1="18.138792"
       y1="45.21809"
       x2="18.138792"
       y2="2.9999995"
       id="linearGradient2854"
       xlink:href="#linearGradient3707"
       gradientUnits="userSpaceOnUse" />
    <linearGradient
       id="linearGradient3707">
      <stop
         id="stop3709"
         style="stop-color:#4c2a4e;stop-opacity:1"
         offset="0" />
      <stop
         id="stop3711"
         style="stop-color:#a85394;stop-opacity:1"
         offset="1" />
    </linearGradient>
    <linearGradient
       id="linearGradient8838">
      <stop
         id="stop8840"
         style="stop-color:#000000;stop-opacity:1"
         offset="0" />
      <stop
         id="stop8842"
         style="stop-color:#000000;stop-opacity:0"
         offset="1" />
    </linearGradient>
    <radialGradient
       cx="62.625"
       cy="4.625"
       r="10.625"
       fx="62.625"
       fy="4.625"
       id="radialGradient3749"
       xlink:href="#linearGradient8838"
       gradientUnits="userSpaceOnUse"
       gradientTransform="matrix(2.1647059,0,0,0.7529402,-111.56471,36.517647)" />
  </defs>
  <g
     id="layer1">
    <path
       d="m 46.999997,40 c 0,4.418278 -10.297452,8 -23,8 -12.702548,0 -23.0000002,-3.581722 -23.0000002,-8 0,-4.418278 10.2974522,-8 23.0000002,-8 12.702548,0 23,3.581722 23,8 l 0,0 z"
       id="path8836"
       style="opacity:0.3;fill:url(#radialGradient3749);fill-opacity:1;fill-rule:evenodd;stroke:none;stroke-width:0.99999988;marker:none;visibility:visible;display:inline;overflow:visible" />
    <path
       d="M 20.81268,3.7833432 C 9.2946995,5.4814553 0.77209309,13.417302 1.546465,22.009721 2.047904,27.573663 6.3183954,32.153264 12.425366,34.569524 l -2.5491339,9.93285 11.2771819,-8.155916 0.07796,-0.0071 c 1.391686,0.06652 2.789829,0.08857 4.240703,-0.0438 C 37.852856,35.166003 47.265956,26.927679 46.453494,17.912686 45.641037,8.8976905 34.908657,2.4973151 22.527879,3.6268593 21.947531,3.6798066 21.37914,3.6998293 20.81268,3.7833432 z"
       id="path6145"
       style="fill:url(#radialGradient2852);fill-opacity:1;fill-rule:evenodd;stroke:url(#linearGradient2854);stroke-width:0.99525028;stroke-linecap:butt;stroke-linejoin:round;stroke-miterlimit:4;stroke-opacity:1;stroke-dasharray:none;stroke-dashoffset:0;marker:none;visibility:visible;display:inline;overflow:visible" />
    <path
       d="M 21.094648,4.7623218 C 10.865769,6.2520739 1.8465467,12.882583 2.5579487,21.860582 3.035775,27.890821 7.7403327,31.982834 13.574223,33.88514 l -1.960294,8.057691 9.157595,-6.58386 c 1.235244,0.05367 3.135772,0.14938 4.424056,0.03185 C 34.936452,34.502119 46.288627,27.267434 45.472921,18.272449 44.603792,8.7463941 33.258184,3.6525973 22.617637,4.6233737 c -0.51531,0.047014 -1.01993,0.065683 -1.522989,0.1389481 z"
       id="path6179"
       style="opacity:0.4;fill:none;stroke:url(#radialGradient3703);stroke-width:0.99525028;stroke-linecap:butt;stroke-linejoin:miter;stroke-miterlimit:4;stroke-opacity:1;stroke-dasharray:none;stroke-dashoffset:0;marker:none;visibility:visible;display:inline;overflow:visible" />
    <path
       d="m 23.15625,6.9303279 c -1.080196,-0.1547498 -2.188854,0.6631442 -2.21875,1.5312498 3.77e-4,0.01041 3.77e-4,0.02084 0,0.03125 -0.0057,0.07077 0.01443,0.167938 0.03125,0.3125 0.0017,0.01433 -0.0017,0.01593 0,0.03125 0.975774,4.6055603 1.308276,9.2275193 2.28125,13.7500013 0.589907,-0.06306 1.506475,-0.183989 2.125,-0.25 -0.134035,-4.462899 -0.540078,-8.896519 -0.59375,-13.4062513 -3.77e-4,-0.01041 -3.77e-4,-0.02084 0,-0.03125 0.08822,-0.87813 -0.502805,-1.8698023 -1.59375,-1.9687498 -0.01041,3.773e-4 -0.02084,3.773e-4 -0.03125,0 l 0,0 z M 25.1875,25.899079 c -0.615904,-0.06343 -1.224953,0.100268 -1.625,0.5625 3.77e-4,0.01041 3.77e-4,0.02084 0,0.03125 -0.429279,0.446165 -0.675933,1.087768 -0.59375,1.6875 3.77e-4,0.01041 3.77e-4,0.02084 0,0.03125 0.09952,1.303162 1.692621,2.164395 2.84375,1.625 0.01041,-3.77e-4 0.02084,-3.77e-4 0.03125,0 1.12122,-0.423893 1.592908,-2.036611 0.875,-3.03125 -0.01094,-0.0099 -0.02137,-0.02031 -0.03125,-0.03125 -0.329188,-0.517953 -0.889274,-0.8121 -1.5,-0.875 z"
       id="path3393-4"
       style="font-size:62.4582634px;font-style:normal;font-variant:normal;font-weight:normal;font-stretch:normal;text-align:start;line-height:125%;writing-mode:lr-tb;text-anchor:start;opacity:0.3;fill:#333333;fill-opacity:1;stroke:none;font-family:Georgia" />
    <path
       d="m 23.15625,7.9303287 c -1.080196,-0.1547498 -2.188854,0.6631442 -2.21875,1.5312494 3.77e-4,0.01041 3.77e-4,0.02084 0,0.03125 -0.0057,0.07077 0.01443,0.167938 0.03125,0.3125 0.0017,0.01433 -0.0017,0.01593 0,0.03125 0.975774,4.6055599 1.308276,9.2275189 2.28125,13.7500009 0.589907,-0.06306 1.506475,-0.183989 2.125,-0.25 -0.134035,-4.462899 -0.540078,-8.896519 -0.59375,-13.4062509 -3.77e-4,-0.01041 -3.77e-4,-0.02084 0,-0.03125 0.08822,-0.87813 -0.502805,-1.8698019 -1.59375,-1.9687494 -0.01041,3.773e-4 -0.02084,3.773e-4 -0.03125,0 l 0,0 z M 25.1875,26.899079 c -0.615904,-0.06343 -1.224953,0.100268 -1.625,0.5625 3.77e-4,0.01041 3.77e-4,0.02084 0,0.03125 -0.429279,0.446165 -0.675933,1.087768 -0.59375,1.6875 3.77e-4,0.01041 3.77e-4,0.02084 0,0.03125 0.09952,1.303162 1.692621,2.164395 2.84375,1.625 0.01041,-3.77e-4 0.02084,-3.77e-4 0.03125,0 1.12122,-0.423893 1.592908,-2.036611 0.875,-3.03125 -0.01094,-0.0099 -0.02137,-0.02031 -0.03125,-0.03125 -0.329188,-0.517953 -0.889274,-0.8121 -1.5,-0.875 z"
       id="path3393"
       style="font-size:62.4582634px;font-style:normal;font-variant:normal;font-weight:normal;font-stretch:normal;text-align:start;line-height:125%;writing-mode:lr-tb;text-anchor:start;fill:#ffffff;fill-opacity:1;stroke:none;font-family:Georgia" />
    <path
       d="m 10.734546,43.374545 2.148178,-9.062717 8.029091,1.570909 -10.177269,7.491808 z"
       id="path3705"
       style="fill:#78337f;fill-opacity:1;stroke-width:1px" />
  </g>
</svg>

<?xml version="1.0" encoding="UTF-8" standalone="no"?>
<!-- Created with Inkscape (http://www.inkscape.org/) -->
<svg
   xmlns:svg="http://www.w3.org/2000/svg"
   xmlns="http://www.w3.org/2000/svg"
   xmlns:xlink="http://www.w3.org/1999/xlink"
   version="1.0"
   width="48"
   height="48"
   id="svg3915">
  <defs
     id="defs3917">
    <linearGradient
       id="linearGradient8838">
      <stop
         id="stop8840"
         style="stop-color:#000000;stop-opacity:1"
         offset="0" />
      <stop
         id="stop8842"
         style="stop-color:#000000;stop-opacity:0"
         offset="1" />
    </linearGradient>
    <radialGradient
       cx="62.625"
       cy="4.625"
       r="10.625"
       fx="62.625"
       fy="4.625"
       id="radialGradient2436"
       xlink:href="#linearGradient8838"
       gradientUnits="userSpaceOnUse"
       gradientTransform="matrix(2.1647059,0,0,0.7529402,-111.56471,36.517647)" />
    <linearGradient
       id="linearGradient3332-412-419">
      <stop
         id="stop2554"
         style="stop-color:#611358;stop-opacity:1"
         offset="0" />
      <stop
         id="stop2556"
         style="stop-color:#a1619b;stop-opacity:1"
         offset="1" />
    </linearGradient>
    <linearGradient
       x1="18.138792"
       y1="45.21809"
       x2="18.138792"
       y2="2.9999995"
       id="linearGradient3396"
       xlink:href="#linearGradient3332-412-419"
       gradientUnits="userSpaceOnUse" />
    <linearGradient
       id="linearGradient3242-593-605">
      <stop
         id="stop2544"
         style="stop-color:#d196bf;stop-opacity:1"
         offset="0" />
      <stop
         id="stop2546"
         style="stop-color:#bb70b6;stop-opacity:1"
         offset="0.26238" />
      <stop
         id="stop2548"
         style="stop-color:#954a9a;stop-opacity:1"
         offset="0.66093999" />
      <stop
         id="stop2550"
         style="stop-color:#6c3b77;stop-opacity:1"
         offset="1" />
    </linearGradient>
    <radialGradient
       cx="20.248743"
       cy="4.9115634"
       r="23"
       fx="20.248743"
       fy="4.9115634"
       id="radialGradient3394"
       xlink:href="#linearGradient3242-593-605"
       gradientUnits="userSpaceOnUse"
       gradientTransform="matrix(0,1.5482998,-1.9379008,1.0320258e-8,32.375267,-28.362533)" />
    <linearGradient
       id="linearGradient4593">
      <stop
         id="stop12409"
         style="stop-color:#ffffff;stop-opacity:0.70200002"
         offset="0" />
      <stop
         id="stop12411"
         style="stop-color:#ffffff;stop-opacity:0"
         offset="1" />
    </linearGradient>
    <linearGradient
       x1="24.133236"
       y1="7.9517579"
       x2="21.013802"
       y2="39.671654"
       id="linearGradient3391"
       xlink:href="#linearGradient4593"
       gradientUnits="userSpaceOnUse"
       gradientTransform="matrix(1.1019153,-0.1005319,0.1083658,1.2024218,-4.7441991,-3.126856)" />
  </defs>
  <g
     id="layer1">
    <path
       d="M 46.999997,40 C 46.999997,44.418278 36.702545,48 23.999997,48 C 11.297449,48 0.9999968,44.418278 0.9999968,40 C 0.9999968,35.581722 11.297449,32 23.999997,32 C 36.702545,32 46.999997,35.581722 46.999997,40 L 46.999997,40 z"
       id="path8836"
       style="opacity:0.3;fill:url(#radialGradient2436);fill-opacity:1;fill-rule:evenodd;stroke:none;stroke-width:0.99999988;stroke-linecap:butt;stroke-linejoin:round;marker:none;marker-start:none;marker-mid:none;marker-end:none;stroke-miterlimit:4;stroke-dasharray:none;stroke-dashoffset:0;stroke-opacity:1;visibility:visible;display:inline;overflow:visible" />
    <path
       d="M 20.81268,3.7833427 C 9.2946995,5.4814548 0.77209309,13.417302 1.546465,22.009721 C 2.047904,27.573663 6.3183954,32.153264 12.425366,34.569524 L 9.8762321,44.502374 L 21.153414,36.346458 L 21.231376,36.339347 C 22.623062,36.405865 24.021205,36.427916 25.472079,36.295547 C 37.852856,35.166003 47.265956,26.927679 46.453494,17.912686 C 45.641037,8.89769 34.908657,2.4973146 22.527879,3.6268588 C 21.947531,3.6798061 21.37914,3.6998288 20.81268,3.7833427 z"
       id="path6145"
       style="fill:url(#radialGradient3394);fill-opacity:1;fill-rule:evenodd;stroke:url(#linearGradient3396);stroke-width:0.99525028;stroke-linecap:butt;stroke-linejoin:round;marker:none;marker-start:none;marker-mid:none;marker-end:none;stroke-miterlimit:4;stroke-dasharray:none;stroke-dashoffset:0;stroke-opacity:1;visibility:visible;display:inline;overflow:visible" />
    <path
       d="M 21.094648,4.7623213 C 10.865769,6.2520734 1.8465467,12.882583 2.5579487,21.860582 C 3.035775,27.890821 7.7403327,31.982834 13.574223,33.88514 L 11.613929,41.942831 L 20.771524,35.358971 C 22.006768,35.412638 23.907296,35.508351 25.19558,35.390816 C 34.936452,34.502119 46.288627,27.267434 45.472921,18.272449 C 44.603792,8.7463936 33.258184,3.6525968 22.617637,4.6233732 C 22.102327,4.6703872 21.597707,4.6890561 21.094648,4.7623213 z"
       id="path6179"
       style="opacity:0.4;fill:none;fill-opacity:1;fill-rule:evenodd;stroke:url(#linearGradient3391);stroke-width:0.99525028;stroke-linecap:butt;stroke-linejoin:miter;marker:none;marker-start:none;marker-mid:none;marker-end:none;stroke-miterlimit:4;stroke-dasharray:none;stroke-dashoffset:0;stroke-opacity:1;visibility:visible;display:inline;overflow:visible" />
    <path
       d="M 23.15625,7.96875 C 22.076054,7.8140002 20.967396,8.6318942 20.9375,9.5 C 20.937877,9.5104133 20.937877,9.5208367 20.9375,9.53125 C 20.931811,9.6020202 20.951928,9.6991874 20.96875,9.84375 C 20.970417,9.858076 20.967039,9.8596808 20.96875,9.875 C 21.944524,14.480559 22.277026,19.102518 23.25,23.625 C 23.839907,23.561939 24.756475,23.441011 25.375,23.375 C 25.240965,18.912101 24.834922,14.478481 24.78125,9.96875 C 24.780873,9.9583367 24.780873,9.9479133 24.78125,9.9375 C 24.869472,9.0593696 24.278445,8.0676975 23.1875,7.96875 C 23.177087,7.9691273 23.166663,7.9691273 23.15625,7.96875 L 23.15625,7.96875 z M 25.1875,26.9375 C 24.571596,26.874067 23.962547,27.037768 23.5625,27.5 C 23.562877,27.510413 23.562877,27.520837 23.5625,27.53125 C 23.133221,27.977415 22.886567,28.619018 22.96875,29.21875 C 22.969127,29.229163 22.969127,29.239587 22.96875,29.25 C 23.068267,30.553162 24.661371,31.414395 25.8125,30.875 C 25.822913,30.874623 25.833337,30.874623 25.84375,30.875 C 26.96497,30.451107 27.436658,28.838389 26.71875,27.84375 C 26.707806,27.833874 26.697376,27.823444 26.6875,27.8125 C 26.358312,27.294547 25.798226,27.0004 25.1875,26.9375 z"
       id="path3393"
       style="font-size:62.4582634px;font-style:normal;font-variant:normal;font-weight:normal;font-stretch:normal;text-align:start;line-height:125%;writing-mode:lr-tb;text-anchor:start;fill:#ffffff;fill-opacity:1;stroke:none;stroke-width:1.00100005;stroke-linecap:round;stroke-linejoin:round;stroke-miterlimit:4;stroke-dasharray:none;stroke-opacity:1;font-family:Georgia" />
  </g>
</svg>
